src/assets/icons/chat-ai.svg

<svg width="24" height="24" viewBox="0 0 24 24" fill="none" xmlns="http://www.w3.org/2000/svg">
<path d="M19.8474 13.6242V13.9992C19.8474 14.7012 19.5665 15.3745 19.0664 15.8709C18.5663 16.3674 17.888 16.6462 17.1807 16.6462L14.9952 16.6463C14.784 16.6463 14.5814 16.7298 14.4316 16.8785L12.1398 19.1535C12.0618 19.2309 11.936 19.2309 11.858 19.1535L9.56615 16.8785C9.41629 16.7298 9.2137 16.6463 9.00255 16.6463H7.18067C6.47342 16.6463 5.79515 16.3674 5.29505 15.871C4.79495 15.3746 4.514 14.7013 4.514 13.9992V7.99909C4.514 7.29704 4.79495 6.62375 5.29505 6.12733C5.79515 5.63091 6.47342 5.35203 7.18067 5.35203L13.2176 5.352" stroke="#314158" stroke-width="1.5" stroke-linecap="round"/>
<path d="M17.3371 4.914064C17.3955 4.765979 17.6051 4.765979 17.6635 4.914064L18.6037 7.29804C18.6215 7.34325 18.6573 7.37903 18.7025 7.39687L21.0865 8.33709C21.2346 8.39549 21.2346 8.60507 21.0865 8.66348L18.7025 9.6037C18.6573 9.62153 18.6215 9.65732 18.6037 9.70253L17.6635 12.0865C17.6051 12.2346 17.3955 12.2346 17.3371 12.0865L16.3969 9.70253C16.379 9.65732 16.3433 9.62153 16.298 9.6037L13.9141 8.66348C13.766 8.60507 13.766 8.39549 13.9141 8.33709L16.298 7.39687C16.3433 7.37903 16.379 7.34325 16.3969 7.29804L17.3371 4.914064Z" stroke="#314158" stroke-width="1.5"/>
</svg>

<svg fill="none" viewBox="0 0 24 24"><path stroke="currentColor" stroke-linecap="round" stroke-width="1.5" d="M19.847 13.624V14c0 .702-.28 1.375-.78 1.872-.5.496-1.179.775-1.886.775h-2.186a.8.8 0 0 0-.563.232l-2.292 2.276a.2.2 0 0 1-.282 0l-2.292-2.276a.8.8 0 0 0-.563-.232H7.18a2.68 2.68 0 0 1-1.886-.775 2.64 2.64 0 0 1-.781-1.872V8c0-.702.28-1.375.781-1.872a2.68 2.68 0 0 1 1.886-.775h6.037"/><path stroke="currentColor" stroke-width="1.5" d="M17.337 4.914a.175.175 0 0 1 .326 0l.94 2.384a.18.18 0 0 0 .1.099l2.384.94a.175.175 0 0 1 0 .326l-2.384.94a.18.18 0 0 0-.1.1l-.94 2.383a.175.175 0 0 1-.326 0l-.94-2.383a.18.18 0 0 0-.099-.1l-2.384-.94a.175.175 0 0 1 0-.326l2.384-.94a.18.18 0 0 0 .099-.099z"/></svg>
